svg/uf0125-resilience.svg

<svg height="960" style="" width="1071" xmlns="http://www.w3.org/2000/svg"><path d="m535.5 0-415.79672 239.89263v480l415.79672 240.10737 415.79672-240.10737v-480zm0 126.86052 305.85667 176.59121v353.09654l-305.85667 176.59122-305.85666-176.59122v-353.09654zm0 100.7068c-83.55444 32.98202-199.86759 64.67569-199.86759 64.67569v262.31009c50.35255 166.00949 199.86759 200.29704 199.86759 200.29704s149.51505-34.28755 199.86759-200.29704v-262.31009s-116.53303-31.69367-199.86759-64.67569zm0 47.49756c14.29221 5.2771 29.24406 10.79472 43.97602 15.63209 42.21699 14.2922 84.21066 26.82194 111.91555 34.95751v222.28504c-24.84645 75.85864-73.65641 118.29894-111.91555 140.94659 0 0-33.64165 18.04048-43.97602 21.55856z" style="stroke-width:21.988"/></svg>

<svg xmlns="http://www.w3.org/2000/svg" width="1071" height="960">
    <path d="M535.5 0 119.703 239.893v480L535.5 960l415.797-240.107v-480zm0 126.86 305.857 176.592v353.096L535.5 833.14 229.643 656.55V303.451zm0 100.707c-83.554 32.982-199.868 64.676-199.868 64.676v262.31C385.985 720.563 535.5 754.85 535.5 754.85s149.515-34.287 199.868-200.297v-262.31S618.835 260.549 535.5 227.567m0 47.498c14.292 5.277 29.244 10.795 43.976 15.632 42.217 14.292 84.21 26.822 111.916 34.957V547.94c-24.847 75.858-73.657 118.298-111.916 140.946 0 0-33.642 18.04-43.976 21.559z" style="stroke-width:21.988"/>
</svg>
